src/lib/images/icons/reddit.svg

<svg viewBox="0 0 31 30" fill="none" xmlns="http://www.w3.org/2000/svg">
<path d="M14.2366 9.76878L15.1754 5.34878C15.2437 5.02759 15.3746 4.723 15.5607 4.45242C15.7467 4.18184 15.9843 3.95056 16.2597 3.7718C16.5352 3.59304 16.8431 3.47029 17.166 3.41058C17.4889 3.35087 17.8204 3.35535 18.1416 3.42378L22.1366 4.27378C22.5049 3.8648 22.9978 3.58878 23.539 3.48852C24.0801 3.38826 24.6392 3.46937 25.1296 3.71926C25.6199 3.96916 26.0141 4.37387 26.251 4.87063C26.4879 5.36739 26.5542 5.92844 26.4397 6.46675C26.3252 7.00506 26.0363 7.49055 25.6178 7.84792C25.1992 8.20529 24.6745 8.41456 24.1249 8.44328C23.5753 8.472 23.0315 8.31856 22.578 8.00676C22.1245 7.69496 21.7866 7.24222 21.6166 6.71878L17.6216 5.86878L16.7891 9.78753C19.0191 9.95878 21.2354 10.7 23.2429 11.9125C23.8394 11.5808 24.5111 11.4077 25.1936 11.4098C25.8762 11.4118 26.5468 11.5889 27.1414 11.9241C27.7359 12.2593 28.2346 12.7415 28.5896 13.3244C28.9446 13.9074 29.1441 14.5717 29.1691 15.2538V15.28C29.1787 15.8914 29.0476 16.4968 28.786 17.0495C28.5244 17.6022 28.1393 18.0874 27.6604 18.4675C27.6581 18.5188 27.6548 18.5701 27.6504 18.6213C27.6504 23.6188 22.0879 27.4088 15.4016 27.4088C8.73662 27.4088 3.26661 23.6288 3.27036 18.7175C3.26491 18.6422 3.26074 18.5668 3.25786 18.4913C2.45051 17.8853 1.90287 16.9958 1.72531 16.002C1.54774 15.0083 1.75346 13.9842 2.301 13.1361C2.84853 12.288 3.69719 11.6789 4.67593 11.4317C5.65468 11.1845 6.69075 11.3174 7.57536 11.8038C9.59425 10.5871 11.8825 9.88803 14.2366 9.76878V9.76878ZM25.8441 16.6763C26.3541 16.4225 26.6741 15.9013 26.6704 15.3325C26.6574 15.0465 26.5622 14.7703 26.3964 14.537C26.2305 14.3036 26.0009 14.123 25.735 14.0167C25.4692 13.9104 25.1784 13.883 24.8973 13.9376C24.6163 13.9923 24.357 14.1268 24.1504 14.325L23.4191 15.025L22.5816 14.4563C20.5629 13.0838 18.2666 12.3 16.0441 12.2513H14.7866C12.4429 12.2875 10.2229 13.0013 8.24036 14.345L7.41162 14.9075L6.68162 14.22C6.52419 14.0723 6.33653 13.9605 6.13163 13.8924C5.92673 13.8243 5.70949 13.8016 5.49494 13.8258C5.28039 13.85 5.07366 13.9205 4.88906 14.0325C4.70446 14.1445 4.54641 14.2953 4.42584 14.4744C4.30527 14.6535 4.22507 14.8567 4.19078 15.0698C4.1565 15.283 4.16895 15.5011 4.22728 15.709C4.28561 15.9168 4.38842 16.1096 4.5286 16.2738C4.66878 16.438 4.84297 16.5698 5.03911 16.66L5.83036 17.0225L5.76286 17.8913C5.74661 18.1038 5.74662 18.315 5.76662 18.6213C5.76662 22.0088 9.96162 24.9088 15.4016 24.9088C20.8654 24.9088 25.1504 21.9888 25.1541 18.5263C25.1704 18.3149 25.1704 18.1026 25.1541 17.8913L25.0891 17.0513L25.8441 16.6763V16.6763ZM9.10912 16.875C9.10912 16.3777 9.30666 15.9008 9.65829 15.5492C10.0099 15.1976 10.4868 15 10.9841 15C11.4814 15 11.9583 15.1976 12.3099 15.5492C12.6616 15.9008 12.8591 16.3777 12.8591 16.875C12.8591 17.3723 12.6616 17.8492 12.3099 18.2009C11.9583 18.5525 11.4814 18.75 10.9841 18.75C10.4868 18.75 10.0099 18.5525 9.65829 18.2009C9.30666 17.8492 9.10912 17.3723 9.10912 16.875ZM17.8591 16.875C17.8591 16.3777 18.0567 15.9008 18.4083 15.5492C18.7599 15.1976 19.2368 15 19.7341 15C20.2314 15 20.7083 15.1976 21.0599 15.5492C21.4116 15.9008 21.6091 16.3777 21.6091 16.875C21.6091 17.3723 21.4116 17.8492 21.0599 18.2009C20.7083 18.5525 20.2314 18.75 19.7341 18.75C19.2368 18.75 18.7599 18.5525 18.4083 18.2009C18.0567 17.8492 17.8591 17.3723 17.8591 16.875ZM15.3791 23.2538C13.6329 23.2538 11.9204 22.7913 10.5266 21.7413C10.4424 21.6396 10.3992 21.5102 10.4054 21.3784C10.4115 21.2465 10.4667 21.1218 10.56 21.0284C10.6533 20.9351 10.7781 20.8799 10.91 20.8738C11.0418 20.8676 11.1712 20.9108 11.2729 20.995C12.4541 21.8613 13.9266 22.2325 15.3591 22.2325C16.7916 22.2325 18.2716 21.8888 19.4641 21.0338C19.5331 20.9665 19.6185 20.9186 19.7119 20.8948C19.8053 20.871 19.9032 20.8722 19.996 20.8983C20.0887 20.9244 20.1729 20.9745 20.2402 21.0435C20.3074 21.1124 20.3554 21.1979 20.3791 21.2913C20.3994 21.3849 20.3964 21.482 20.3705 21.5742C20.3446 21.6663 20.2965 21.7507 20.2304 21.82C19.3754 22.8163 17.1254 23.2538 15.3791 23.2538V23.2538Z" fill="#fff"/>
</svg>

<svg fill="none" viewBox="0 0 31 30" xmlns="http://www.w3.org/2000/svg"><path d="M14.237 9.769l.938-4.42a2.499 2.499 0 0 1 2.967-1.925l3.995.85a2.5 2.5 0 1 1-.52 2.445l-3.995-.85-.833 3.919c2.23.17 4.446.912 6.454 2.124a3.989 3.989 0 0 1 5.926 3.342v.026a3.99 3.99 0 0 1-1.509 3.188 3.767 3.767 0 0 1-.01.153c0 4.998-5.562 8.788-12.248 8.788-6.665 0-12.135-3.78-12.132-8.691a6.639 6.639 0 0 1-.012-.227 3.99 3.99 0 0 1 4.317-6.687 14.308 14.308 0 0 1 6.662-2.035zm11.607 6.907c.51-.253.83-.775.826-1.343a1.49 1.49 0 0 0-2.52-1.008l-.73.7-.838-.569c-2.02-1.372-4.315-2.156-6.538-2.205h-1.257c-2.344.037-4.564.75-6.547 2.094l-.828.563-.73-.688a1.491 1.491 0 0 0-2.455 1.489 1.49 1.49 0 0 0 .812.951l.791.363-.067.868c-.016.213-.016.424.004.73 0 3.388 4.195 6.288 9.635 6.288 5.463 0 9.748-2.92 9.752-6.383a4.13 4.13 0 0 0 0-.635l-.065-.84zm-16.735.199a1.875 1.875 0 1 1 3.75 0 1.875 1.875 0 0 1-3.75 0zm8.75 0a1.875 1.875 0 1 1 3.75 0 1.875 1.875 0 0 1-3.75 0zm-2.48 6.379c-1.746 0-3.459-.463-4.852-1.513a.53.53 0 0 1 .746-.746c1.181.866 2.654 1.238 4.086 1.238 1.433 0 2.913-.344 4.105-1.2a.549.549 0 0 1 .915.258.586.586 0 0 1-.149.529c-.855.996-3.105 1.434-4.85 1.434z" fill="#fff"/></svg>
